X: 139
T:Red Tom of the Hills
M:C
L:1/8
C:Ed Reavy
S:The Collected Compositions of Ed Reavy
R:Reel
N:
N:Tom came from somewhere in the Monaghan
N:Hills-no one knew exactly where. He loved to ceili and "pack it in"
N:Tom had a "shakey" hand that could have been a trial to most. But you
N:would never know it from the way Tom could slap large cuts of butter
N:on his bread at tea time. Mom Reavy said Tom's hand was not to be
N:pitied
N:"for it always shook deeper into the butter."
Z:Joseph Reavy
K:G
|GF|DG (3GFG DE =FD|GABc defa|gfdc (3Bcd BG|(3ABc AF DE=FD
| G2 dG c=FA^F|G(ABc) defa|gfdc B2 (3dcB|cAFA G2:||Bd|g2
bg afbg|(3gfg bg BGGe|=f a^f gfaf|(3fef af dcBc|dg (3gfg bg
(3gfg|BGBd gdBd|=fefa g^fga|fdcA G2:||
<end>
<start>
